static/assets/images/icons/extendable.svg

<svg width="256" height="256" viewBox="0 0 256 256" fill="none" xmlns="http://www.w3.org/2000/svg">
<path fill-rule="evenodd" clip-rule="evenodd" d="M156.003 93.8331C156.003 95.6441 156.722 97.381 158.003 98.6616C159.283 99.9422 161.02 100.662 162.831 100.662H231.836C233.647 100.662 235.384 99.9422 236.664 98.6616C237.945 97.381 238.664 95.6441 238.664 93.8331V24.8286C238.664 23.0175 237.945 21.2806 236.664 20C235.384 18.7194 233.647 18 231.836 18H162.831C161.02 18 159.283 18.7194 158.003 20C156.722 21.2806 156.003 23.0175 156.003 24.8286V93.8331ZM169.66 31.6571V87.0045H225.007V31.6571H169.66Z" fill="black"/>
<path fill-rule="evenodd" clip-rule="evenodd" d="M112.543 52.6758C114.347 52.6758 116.077 53.3952 117.353 54.6758C118.629 55.9564 119.346 57.6933 119.346 59.5044V128.509C119.346 130.321 118.629 132.057 117.353 133.338C116.077 134.619 114.347 135.338 112.543 135.338C114.347 135.338 116.077 136.058 117.353 137.338C118.629 138.619 119.346 140.356 119.346 142.167C119.346 140.356 120.062 138.619 121.338 137.338C122.614 136.058 124.344 135.338 126.148 135.338H194.889C196.693 135.338 198.423 136.058 199.699 137.338C200.975 138.619 201.691 140.356 201.691 142.167V211.172C201.691 212.983 200.975 214.72 199.699 216C198.423 217.281 196.693 218 194.889 218H126.148C124.344 218 122.614 217.281 121.338 216C120.062 214.72 119.346 212.983 119.346 211.172C119.346 212.983 118.629 214.72 117.353 216C116.077 217.281 114.347 218 112.543 218H43.8025C41.9983 218 40.2681 217.281 38.9924 216C37.7167 214.72 37 212.983 37 211.172V142.167C37 140.356 37.7167 138.619 38.9924 137.338C40.2681 136.058 41.9983 135.338 43.8025 135.338C41.9983 135.338 40.2681 134.619 38.9924 133.338C37.7167 132.057 37 130.321 37 128.509V59.5044C37 57.6933 37.7167 55.9564 38.9924 54.6758C40.2681 53.3952 41.9983 52.6758 43.8025 52.6758H112.543ZM50.6049 66.333H105.741V121.681H50.6049V66.333ZM132.951 148.995H188.086V204.343H132.951V148.995ZM50.6049 148.995H105.741V204.343H50.6049V148.995Z" fill="black"/>
</svg>

<svg xmlns="http://www.w3.org/2000/svg" fill="none" viewBox="0 0 256 256"><path fill="#000" fill-rule="evenodd" d="M156.003 93.833a6.827 6.827 0 0 0 6.828 6.829h69.005a6.827 6.827 0 0 0 6.828-6.829V24.83a6.827 6.827 0 0 0-6.828-6.83h-69.005a6.826 6.826 0 0 0-6.828 6.829zm13.657-62.176v55.348h55.347V31.656z" clip-rule="evenodd"/><path fill="#000" fill-rule="evenodd" d="M112.543 52.676a6.8 6.8 0 0 1 4.81 2 6.84 6.84 0 0 1 1.993 4.828v69.005a6.84 6.84 0 0 1-1.993 4.829 6.8 6.8 0 0 1-4.81 2c1.804 0 3.534.72 4.81 2a6.84 6.84 0 0 1 1.993 4.829c0-1.811.716-3.548 1.992-4.829a6.8 6.8 0 0 1 4.81-2h68.741c1.804 0 3.534.72 4.81 2a6.84 6.84 0 0 1 1.992 4.829v69.005a6.84 6.84 0 0 1-1.992 4.828 6.8 6.8 0 0 1-4.81 2h-68.741a6.8 6.8 0 0 1-4.81-2 6.84 6.84 0 0 1-1.992-4.828 6.84 6.84 0 0 1-1.993 4.828 6.8 6.8 0 0 1-4.81 2h-68.74a6.8 6.8 0 0 1-4.81-2A6.84 6.84 0 0 1 37 211.172v-69.005c0-1.811.717-3.548 1.992-4.829a6.8 6.8 0 0 1 4.81-2 6.8 6.8 0 0 1-4.81-2A6.84 6.84 0 0 1 37 128.509V59.504c0-1.81.717-3.548 1.992-4.828a6.8 6.8 0 0 1 4.81-2zM50.605 66.333h55.136v55.348H50.605zm82.346 82.662h55.135v55.348h-55.135zm-82.346 0h55.136v55.348H50.605z" clip-rule="evenodd"/></svg>
